X: 26247
T: Meet Me On The Dance Floor
R: jig
M: 6/8
K: Eminor
E^DE GFE|F2 E D2 D|E^DE GFE|A2 G F2 D|
E^DE GFE|F2 E D2 D|AFG AGF|E2 A E2:|
GEB AEB,|D2 G DB,G|EB,B EBA|GFE D2 B|
GEB AEB,|D2 G ADB|AFG AGF|E2 A E2:|

